dist/svgs/search-text.svg

<svg xmlns="http://www.w3.org/2000/svg" viewBox="0 0 512 512"><path d="M511 157H0V92h511v65zm-254 64q-15 30-18 62H0v-62h257zm-11 127q10 28 20.5 41.5T284 411H0v-63h246zm266 43l-36 36-44-45q-8 5-21 9.5t-29 4.5q-23 0-39-8-18-8-31-21-14-14-21-31-8-19-8-39t8-39q7-17 21-31t31-22q18-8 38.5-8t38.5 8q9 4 16.5 9.5T451 227q14 14 21 31 8 20 7 39 0 14-3.5 25.5T467 344zm-85-75q4-8 4-19 0-12-4-20-2-5-4.5-9t-6.5-7q-5-6-15-11-8-4-20-4-11 0-19 4-5 2-9 4.5t-7 6.5q-4 3-6.5 7t-4.5 9q-4 8-4 20 0 11 4 19 2 5 4.5 9t6.5 7q6 8 16 11 19 9 39 0 8-3 15-11 8-6 11-16z"/></svg>

<?xml version="1.0" encoding="UTF-8" standalone="no"?><svg   xmlns:svg="http://www.w3.org/2000/svg"   xmlns="http://www.w3.org/2000/svg"   version="1.1"   width="512"   height="512"   viewBox="0 0 512 512">  <path     d="M511 157H0V92H511V157zM257 221Q242 251 239 283H0V221H257zM246 348Q256 376 266.5 389.5T284 411H0V348H246zM512 391L476 427L432 382Q424 387 411 391.5T382 396Q359 396 343 388Q325 380 312 367Q298 353 291 336Q283 317 283 297T291 258Q298 241 312 227T343 205Q361 197 381.5 197T420 205Q429 209 436.5 214.5T451 227Q465 241 472 258Q480 278 479 297Q479 311 475.5 322.5T467 344zM427 316Q431 308 431 297Q431 285 427 277Q425 272 422.5 268T416 261Q411 255 401 250Q393 246 381 246Q370 246 362 250Q357 252 353 254.5T346 261Q342 264 339.5 268T335 277Q331 285 331 297Q331 308 335 316Q337 321 339.5 325T346 332Q352 340 362 343Q381 352 401 343Q409 340 416 332Q424 326 427 316z"     id="search-text" /></svg>
